X:139
T:Go Mauve
Z:Jack Campin, http://www.campin.me.uk/
F:Jack Campin's Nine-Note Tunebook
% last edit 07-03-2013
M:4/4
L:1/8
Q:1/2=72
C:Ian Luff 
G:Schottische
D:Blowzabella - Vanilla
Z:Steve Mansfield
K:EMin
EGBG E2GB|dd^cB F4  |AGFE D2FG|   FEDE  FGE2 |
EGBG E2GB|dd^cB F4  |AGFE DEFG|   E2E2- E4  :|
E2E2 EFGE|F2F2  FGAF|G2G2 GBAG|   A2A2- AGFG |
E2E2 EFGE|F2F2  FGAF|G2G2 GBAG|[1 A2A2- AGFG:|\
                               [2 A2A2- A4  |]

